src/assets/img/iconlogo.svg

<?xml version="1.0" encoding="UTF-8"?>
<!DOCTYPE svg PUBLIC "-//W3C//DTD SVG 1.1//EN" "http://www.w3.org/Graphics/SVG/1.1/DTD/svg11.dtd">
<svg xmlns="http://www.w3.org/2000/svg" version="1.1" width="127px" height="127px" style="shape-rendering:geometricPrecision; text-rendering:geometricPrecision; image-rendering:optimizeQuality; fill-rule:evenodd; clip-rule:evenodd" xmlns:xlink="http://www.w3.org/1999/xlink">
<g><path style="opacity:0.998" fill="#5d4734" d="M 10.5,-0.5 C 44.1667,-0.5 77.8333,-0.5 111.5,-0.5C 112.469,0.309426 113.302,1.30943 114,2.5C 114.414,2.04265 114.914,1.70931 115.5,1.5C 116.333,2.5 117.167,3.5 118,4.5C 118.986,3.82881 120.153,3.82881 121.5,4.5C 123.68,6.86329 125.347,9.52996 126.5,12.5C 126.5,46.1667 126.5,79.8333 126.5,113.5C 125.342,117.335 123.009,120.335 119.5,122.5C 117.81,124.342 115.81,125.675 113.5,126.5C 79.5,126.5 45.5,126.5 11.5,126.5C 5.8077,124.141 1.8077,120.141 -0.5,114.5C -0.5,80.1667 -0.5,45.8333 -0.5,11.5C 1.75103,6.24704 5.4177,2.24704 10.5,-0.5 Z"/></g>
<g><path style="opacity:0.867" fill="#776658" d="M 111.5,-0.5 C 112.5,-0.5 113.5,-0.5 114.5,-0.5C 117.09,0.749245 119.424,2.41591 121.5,4.5C 120.153,3.82881 118.986,3.82881 118,4.5C 117.167,3.5 116.333,2.5 115.5,1.5C 114.914,1.70931 114.414,2.04265 114,2.5C 113.302,1.30943 112.469,0.309426 111.5,-0.5 Z"/></g>
<g><path style="opacity:1" fill="#c4b49d" d="M 121.5,11.5 C 122.493,44.7602 122.826,78.0935 122.5,111.5C 121.361,114.434 119.694,117.1 117.5,119.5C 115.86,120.32 114.193,121.153 112.5,122C 79.5,122.667 46.5,122.667 13.5,122C 12.0993,121.59 10.766,121.09 9.5,120.5C 7.07667,118.243 5.24334,115.576 4,112.5C 3.33333,78.8333 3.33333,45.1667 4,11.5C 5.99044,7.5095 9.15711,5.0095 13.5,4C 46.5,3.33333 79.5,3.33333 112.5,4C 116.277,5.61411 119.277,8.11411 121.5,11.5 Z"/></g>
<g><path style="opacity:1" fill="#4c3621" d="M 122.5,111.5 C 122.826,78.0935 122.493,44.7602 121.5,11.5C 121.81,10.2617 122.31,10.2617 123,11.5C 123.831,45.0025 123.664,78.3359 122.5,111.5 Z"/></g>
<g><path style="opacity:1" fill="#57422d" d="M 41.5,28.5 C 49.2559,27.3836 56.2559,29.0503 62.5,33.5C 66.6193,29.9241 71.4526,28.2574 77,28.5C 83.3227,29.2889 89.4893,30.7889 95.5,33C 99.1667,33.3333 102.833,33.6667 106.5,34C 107.333,34.8333 108.167,35.6667 109,36.5C 109.667,55.1667 109.667,73.8333 109,92.5C 108.097,93.7014 106.931,94.5348 105.5,95C 89.1744,95.7561 72.8411,96.2561 56.5,96.5C 43.3752,96.7677 30.3752,95.9344 17.5,94C 16.8742,93.2496 16.3742,92.4162 16,91.5C 15.3333,73.1667 15.3333,54.8333 16,36.5C 16.8333,35.6667 17.6667,34.8333 18.5,34C 26.6945,33.8741 34.3612,32.0408 41.5,28.5 Z"/></g>
<g><path style="opacity:1" fill="#beaa95" d="M 19.5,36.5 C 20.8333,36.5 22.1667,36.5 23.5,36.5C 23.5,54.1667 23.5,71.8333 23.5,89.5C 30.4944,89.1366 37.4944,88.8033 44.5,88.5C 50.6082,88.3823 56.6082,89.049 62.5,90.5C 64.7759,89.7868 67.1093,89.2868 69.5,89C 80.245,88.383 90.9117,88.383 101.5,89C 102.492,71.5769 102.825,54.0769 102.5,36.5C 103.822,36.33 104.989,36.6634 106,37.5C 106.667,55.5 106.667,73.5 106,91.5C 77.197,94.1471 48.3637,94.1471 19.5,91.5C 18.1814,73.1022 18.1814,54.7689 19.5,36.5 Z"/></g>
<g><path style="opacity:1" fill="#aa9580" d="M 60.5,35.5 C 61.6615,51.6615 61.8282,67.9948 61,84.5C 60.0053,83.9341 59.172,83.2674 58.5,82.5C 60.4844,67.2023 61.1511,51.5357 60.5,35.5 Z"/></g>
<g><path style="opacity:1" fill="#c5b59e" d="M 65.5,83.5 C 64.5037,68.0089 64.1704,52.3422 64.5,36.5C 65.343,34.8267 66.6763,33.66 68.5,33C 78.9377,31.0251 88.9377,32.5251 98.5,37.5C 99.8333,53.1667 99.8333,68.8333 98.5,84.5C 89.4487,81.0562 80.1154,79.8896 70.5,81C 68.5483,81.3661 66.8816,82.1995 65.5,83.5 Z"/></g>
<g><path style="opacity:1" fill="#c6b59e" d="M 60.5,35.5 C 61.1511,51.5357 60.4844,67.2023 58.5,82.5C 55.4354,80.7016 52.1021,79.7016 48.5,79.5C 41.1366,80.4664 33.9699,82.1331 27,84.5C 26.5001,68.5035 26.3334,52.5035 26.5,36.5C 33.372,34.3655 40.372,32.6989 47.5,31.5C 52.3295,31.4537 56.6628,32.787 60.5,35.5 Z"/></g>
<g><path style="opacity:1" fill="#6b5943" d="M 64.5,36.5 C 64.1704,52.3422 64.5037,68.0089 65.5,83.5C 65.44,84.0431 65.1067,84.3764 64.5,84.5C 63.1734,68.3383 63.1734,52.3383 64.5,36.5 Z"/></g>
<g><path style="opacity:1" fill="#ccb5a1" d="M 55.5,84.5 C 49.1667,85.8333 42.8333,85.8333 36.5,84.5C 42.8847,83.3022 49.2181,83.3022 55.5,84.5 Z"/></g>
<g><path style="opacity:1" fill="#c8b29d" d="M 70.5,83.5 C 76.5771,83.1959 82.5771,83.6959 88.5,85C 81.4502,85.4477 74.4502,85.781 67.5,86C 68.5707,85.1482 69.5707,84.3149 70.5,83.5 Z"/></g>
<g><path style="opacity:1" fill="#856e59" d="M 36.5,84.5 C 42.8333,85.8333 49.1667,85.8333 55.5,84.5C 56.7562,84.4614 57.7562,84.9614 58.5,86C 49.8333,86.6667 41.1667,86.6667 32.5,86C 33.5634,84.8118 34.8967,84.3118 36.5,84.5 Z"/></g>
<g><path style="opacity:1" fill="#4d3823" d="M 117.5,119.5 C 117.042,120.772 117.709,121.772 119.5,122.5C 83.5159,123.627 47.5159,123.794 11.5,123C 10.376,122.751 9.37598,122.251 8.5,121.5C 8.62358,120.893 8.95691,120.56 9.5,120.5C 10.766,121.09 12.0993,121.59 13.5,122C 46.5,122.667 79.5,122.667 112.5,122C 114.193,121.153 115.86,120.32 117.5,119.5 Z"/></g>
</svg>

<svg xmlns="http://www.w3.org/2000/svg" width="127" height="127" style="shape-rendering:geometricPrecision;text-rendering:geometricPrecision;image-rendering:optimizeQuality;fill-rule:evenodd;clip-rule:evenodd"><path style="opacity:.998" fill="#5d4734" d="M10.5-.5h101c.969.81 1.802 1.81 2.5 3 .414-.457.914-.79 1.5-1l2.5 3c.986-.671 2.153-.671 3.5 0a25.102 25.102 0 0 1 5 8v101c-1.158 3.835-3.491 6.835-7 9-1.69 1.842-3.69 3.175-6 4h-102c-5.692-2.359-9.692-6.359-12-12v-103c2.251-5.253 5.918-9.253 11-12z"/><path style="opacity:.867" fill="#776658" d="M111.5-.5h3a25.402 25.402 0 0 1 7 5c-1.347-.671-2.514-.671-3.5 0l-2.5-3a3.646 3.646 0 0 0-1.5 1c-.698-1.19-1.531-2.19-2.5-3z"/><path style="opacity:1" fill="#c4b49d" d="M121.5 11.5a2524.99 2524.99 0 0 1 1 100c-1.139 2.934-2.806 5.6-5 8l-5 2.5c-33 .667-66 .667-99 0-1.4-.41-2.734-.91-4-1.5a22.142 22.142 0 0 1-5.5-8 2550.487 2550.487 0 0 1 0-101C5.99 7.51 9.157 5.01 13.5 4c33-.667 66-.667 99 0 3.777 1.614 6.777 4.114 9 7.5z"/><path style="opacity:1" fill="#4c3621" d="M122.5 111.5a2524.99 2524.99 0 0 0-1-100c.31-1.238.81-1.238 1.5 0 .831 33.502.664 66.836-.5 100z"/><path style="opacity:1" fill="#57422d" d="M41.5 28.5c7.756-1.116 14.756.55 21 5 4.12-3.576 8.953-5.243 14.5-5A83.283 83.283 0 0 1 95.5 33l11 1 2.5 2.5a783.858 783.858 0 0 1 0 56 6.977 6.977 0 0 1-3.5 2.5 1563.385 1563.385 0 0 1-49 1.5 230.398 230.398 0 0 1-39-2.5 9.468 9.468 0 0 1-1.5-2.5 756.462 756.462 0 0 1 0-55l2.5-2.5c8.195-.126 15.861-1.96 23-5.5z"/><path style="opacity:1" fill="#beaa95" d="M19.5 36.5h4v53c6.994-.363 13.994-.697 21-1a69.364 69.364 0 0 1 18 2 38.821 38.821 0 0 1 7-1.5 276.835 276.835 0 0 1 32 0 696.684 696.684 0 0 0 1-52.5c1.322-.17 2.489.163 3.5 1 .667 18 .667 36 0 54a472.09 472.09 0 0 1-86.5 0 382.843 382.843 0 0 1 0-55z"/><path style="opacity:1" fill="#aa9580" d="M60.5 35.5c1.161 16.161 1.328 32.495.5 49-.995-.566-1.828-1.233-2.5-2 1.984-15.298 2.651-30.964 2-47z"/><path style="opacity:1" fill="#c5b59e" d="M65.5 83.5a552.845 552.845 0 0 1-1-47c.843-1.673 2.176-2.84 4-3.5 10.438-1.975 20.438-.475 30 4.5a276.632 276.632 0 0 1 0 47c-9.051-3.444-18.385-4.61-28-3.5-1.952.366-3.618 1.2-5 2.5z"/><path style="opacity:1" fill="#c6b59e" d="M60.5 35.5c.651 16.036-.016 31.702-2 47-3.065-1.798-6.398-2.798-10-3a112.034 112.034 0 0 0-21.5 5c-.5-15.996-.667-31.996-.5-48a160.41 160.41 0 0 1 21-5c4.83-.046 9.163 1.287 13 4z"/><path style="opacity:1" fill="#6b5943" d="M64.5 36.5a552.845 552.845 0 0 0 1 47c-.06.543-.393.876-1 1-1.327-16.162-1.327-32.162 0-48z"/><path style="opacity:1" fill="#ccb5a1" d="M55.5 84.5a45.626 45.626 0 0 1-19 0c6.385-1.198 12.718-1.198 19 0z"/><path style="opacity:1" fill="#c8b29d" d="M70.5 83.5a67.622 67.622 0 0 1 18 1.5c-7.05.448-14.05.781-21 1a81.718 81.718 0 0 0 3-2.5z"/><path style="opacity:1" fill="#856e59" d="M36.5 84.5a45.626 45.626 0 0 0 19 0c1.256-.039 2.256.461 3 1.5-8.667.667-17.333.667-26 0 1.063-1.188 2.397-1.688 4-1.5z"/><path style="opacity:1" fill="#4d3823" d="M117.5 119.5c-.458 1.272.209 2.272 2 3a2024.216 2024.216 0 0 1-108 .5 6.802 6.802 0 0 1-3-1.5c.124-.607.457-.94 1-1 1.266.59 2.6 1.09 4 1.5 33 .667 66 .667 99 0l5-2.5z"/></svg>
